X:1
T:BWV 1012M
T:J. S. Bach
%%score { ( 1 4 ) | ( 2 3 ) }
L:1/8
Q:1/4=184
M:12/8
K:Db
V:1 treble nm="Harp"
V:4 treble 
V:2 treble 
V:3 treble 
V:1
"^Presto" z D z2 D z2 D z2 D z | z D z2 D z2 D z2 D z | BDG Bcd ADF Acd | BDG Bcd ADF Acd | %4
 GEF GDF GCF GA,G | FDE FCE FB,D FA,D | E=G,D EA,C DA,C DG,B, | CA,C EF=G ACE GAB | %8
 cE=G Acd eAc ef=g | aAB ceB cae cec | AaB ceB cae cec | z A z2 A z2 A z2 A z | %12
 z A z2 A z2 A z2 A z | fAd f=ga eAc ega | fAd f=ga eAc ega | dBc dAc d=Gc dEd | cAB c=GB cFA cEA | %17
 _c=Dc BcA fAc BcA | GEG Bc=d eGB def | gB=d ega beg bc'=d' | e'ef gbf ge'b gbg | %21
 ee'f gbf ge'b gbg | z e z2 e z2 e z2 e z | z e z2 e z2 e z2 e z | z e z2 e z2 e z2 e z | %25
 z e z2 e z2 e z2 e z | z e z2 e z2 e z2 e z | z e z2 e z2 e z2 e z | z e z2 e z2 e z2 e z | %29
 z e z2 e z2 e z2 e z | z e z2 e z2 e z2 e z | z e z2 e z Fgf edc | dBf dBf dBc def | %33
 GBd fb=a bge d'c'b | =aec' aec' aef gfe | dbf dbf dba =gab | =edc d=GF Gdc d_fd | %37
 ced ceB =ABc GFE | DFB AGF GED CDE | A,CF EDC DB,A, =G,A,B, | _F,B,D F,B,D Bcd c=AB | %41
 F,B,D F,B,D Bcd c=AB | G,B,E Bcd c=AB =eAB | fcd bag fed _ceB | =AGF EDC DFB FBA | %45
 BFE DFC DB,D FBF | DBF DFC DB,D FA=G | AED CEB, CA,C EAE | CGE CEB, CA,C EFG | FAG FAE FDE FAB | %50
 _cAG FAE FDF ABc | BGA BdA Bgd BdA | BGA BdA Bgd BGD | G, z G, G, z B, G, z D G, z G | %54
 G, z G, G, z B, G, z D G, z G | EG,_C EFG DG,B, DFG | EG,_C EFG DG,B, DFG | %57
 _CA,B, CA,G, F,A,B, CA,F, | D,F,A, _CDF AdA FDC | B,G,A, B,DA, B,G,A, B,GA, | %60
 B,G,A, B,DA, B,G,A, B,GE | CA,B, CEF GED CEB, | CA,B, CEF GAB cde | FDE FAE FDE FdE | %64
 FDE FAE FDE FdB | =GEF GBc dBA GBF | =GEF GBc def =gab | cAB cef ged ceB | cAB cef gab c'd'e' | %69
 Afd' fde fd'e fd'd | Age' gef ge'f ge'e | Aaf' afg af'g af'f | Abg' bga bg'a bg'g | %73
 Ac'g' f'e'd' c'f'e' d'c'b | af'e' f'gf ge'd' e'fe | fd'c' d'ed ec'b c'af | dba bge cag afd | %77
 Bgf gec A>Bc/4d/4e/4f/4 gec | Afe fdB G3/2A/4B/4c/d/ ecA | Fdc dBG E3/2F/4G/4A/B/ cAF | %80
 DBG ECA B,GE CA,F | G,EC A,F,D E,G,A, CEF | GAc ega c'3- c'/b/a/g/f/e/ | %83
 a/g/f/e/d/c/ f/e/d/c/B/A/ d/c/B/A/=G/F/ B/A/G/F/E/D/ | %84
 C/E/A/c/e/a/ e/c/A/E/C/A,/ C/E/A/c/e/a/ e/c/A/E/C/A,/ | %85
 G,/E/A/c/e/a/ e/c/A/E/C/A,/ G,/E/A/c/e/a/ e/c/A/E/C/A,/ | %86
 F,/A,/B,/_C/B,/A,/ D,/A,/B,/C/B,/A,/ F/A/B/_c/B/A/ f/A/B/c/B/A/ | %87
 B/d/_c/B/A/G/ B/A/G/F/E/D/ E/G/F/E/D/C/ F/E/D/C/B,/A,/ | %88
 _F/E/D/E/F/D/ =G,/D/E/F/E/D/ B/D/E/F/E/D/ d/D/E/F/E/D/ | z A z2 A z2 A z2 A z | %90
 z A z2 A z2 A z2 A z | z D z2 D z2 D z2 D z | z D z2 D z2 D z2 D z | %93
 =G/A/B/c/d/e/ d/e/c/e/d/e/ d/e/c/e/d/e/ d/e/c/e/B/e/ | %94
 G/A/c/d/e/d/ c/e/B/e/c/e/ c/e/B/e/c/e/ c/e/B/e/A/e/ | Fea dcB Edg cBA | DAf b=ga af_g ge_f | %97
 _fd=d dc_d d z2 d z2 | d z2 d z2 d z2 c z2 | DFA dAF DFA _cAF | DGB dBd gdg bge | %101
 ced egf gba bd'c' | d'af afd fdA dAF | AFD FDA, D,A,F !fermata!d3 | %104
[M:4/4][Q:1/4=48]"^Lento" z4 z2 z z/ f/ | %105
 f2- f/4e/4g/4f/4e/4d/4e/8c/8d/4 dc3/4d/8e/8 e/4c/4B/4A/4B/8c/8B/8c/8d/8c/8B/8c/8 | %106
 d>a- a/4g/4f/4e/4d/8c/8d/8e/8f/8e/8g/8f/8 g/-g/8f/8e/8f/8g/4f/4g/4b/4 a/4g/4a/4g/4a/4g/4f/4g/4 | %107
 fe/f/4d/4 d'>d' =G/4e/4b/4d'/4c'/4b/4=a/8b/8d'/8c'/8 c'=A/>e/ | %108
 B/e/4g/4f/4e/4d/4e/8d/8 d3/4B/8c/8d/4e/4f/4a/8=g/8 a/ z/ z E/8=D/8E/8D/8E/8D/8a/4b/4a/4g/4a/4 | %109
 a/=g/f/e/ e>e e/f/4g/4a/4g/4a/4f/4 e/8d/8e/8d/8e/8d/8c/4B/4d/4f/4a/4 | %110
 =g/4a/4b/4a/4g/4f/4e/4f/8d/8 d/8c/8d/8c/8d/8c/8B/4A/4=G/4A/4c/4 f/>e/d/4c/4d/4f/4 b/4g/4a/4f/4e/4c/4d/4B/4 | %111
 A/4F/4=G/4B/<e/D/4 C/>e/d/4c/4B/4A/4 D/4f/4e/4d/4c/4G/4A/4d/4 B>A | %112
 A/>B/c/4d/4e/4g/4 f/4e/4d/4c/4d/4B/4a/4=g/4 a/>e/c/4c/4B/4A/4 A,3/2 f/ | %113
 f2- f/4e/4g/4f/4e/4d/4e/8c/8d/4 dc3/4d/8e/8 e/4c/4B/4A/4B/8c/8B/8c/8d/8c/8B/8c/8 | %114
 d>a- a/4g/4f/4e/4d/8c/8d/8e/8f/8e/8g/8f/8 g/-g/8f/8e/8f/8g/4f/4g/4b/4 a/4g/4a/4g/4a/4g/4f/4g/4 | %115
 fe/f/4d/4 d'>d' =G/4e/4b/4d'/4c'/4b/4=a/8b/8d'/8c'/8 c'=A/>e/ | %116
 B/e/4g/4f/4e/4d/4e/8d/8 d3/4B/8c/8d/4e/4f/4a/8=g/8 a/ z/ z E/8=D/8E/8D/8E/8D/8a/4b/4a/4g/4a/4 | %117
 a/=g/f/e/ e>e e/f/4g/4a/4g/4a/4f/4 e/8d/8e/8d/8e/8d/8c/4B/4d/4f/4a/4 | %118
 =g/4a/4b/4a/4g/4f/4e/4f/8d/8 d/8c/8d/8c/8d/8c/8B/4A/4=G/4A/4c/4 f/>e/d/4c/4d/4f/4 b/4g/4a/4f/4e/4c/4d/4B/4 | %119
 A/4F/4=G/4B/<e/D/4 C/>e/d/4c/4B/4A/4 D/4f/4e/4d/4c/4G/4A/4d/4 B>A | %120
 A/>B/c/4d/4e/4g/4 f/4e/4d/4c/4d/4B/4a/4=g/4 a/>e/c/4c/4B/4A/4 A,3/2 e/ | %121
 ee/4g/4f/4e/4 d/4c/4B/4c/4d/4c/4B/4c/8A/8 a3/2g/4f/4 e/4d/4c/4B/4A/4G/4F/4G/4 | %122
 F/-F/8A/8B/8c/8d/4B/4G/4F/4 E/g/4f/4g/4e/4c/4A/4 D/A/4B/4c/4d/4e/4f/8g/8 f3/4D/8E/8F/4D/4E/4F/4 | %123
 _C,>A B/4A/4B/4_c/4B/4c/4c/4B/4 d3/2 z/ z2 | %124
 A,=G,/>f/ f/4_f/4=g/4=f/4a/4g/4b/4d/4 _F/c/4b/4a/4b/4g/ a/g/4f/4f/4e/4d/4e/8c/8 | %125
 d/>c/B/4A/4G/4A/8F/8 G3/4D/8E/8F/8G/8A/4B/4c/8d/8 d/F/8E/8F/8E/8F/8E/8F/8E/8F/4=G/4 C/4B,/D/4C/D/4B,/4 | %126
 A,/4f/4=g/4a/4B/4a/4g/4b/4 ff/8e/8f/8e/8f/8e/8f/4 f/>c/f/4g/4a/4g/4 a/4b/4_c'/4a/4=d/4e/4d/4e/4 | %127
 =d3/4A/8B/8_c/8c3/4A/8B/8c/8 c/B/4a/4a/8g/8f/8g/8a/8f/8 g3/2a/4b/4 a/4g/4f/4e/4_d/4=c/4e/4d/4 | %128
 d/B,/4C/4D/4E/4F/4D/4 =G/4B/4E/4F/4G/4A/4B/4c/4 d/4c/4B/4c/4d/4B/4c/4A/4 a/>_G/A/4G/4F/4G/4 | %129
 F/>a/g/4f/4e/4d/4 _c/4B/4c/4a/4c/4B/4c/4A/4 =D/4F/4B/4=d/4f/4a/4g/4f/4 g/E/4F/4G/4A/4B/4_d/4 | %130
 c/4e/4A/4c/4e/4g/4f/4e/4 f/D/4E/4F/4G/4A/4_C/4 G,/>f/b/4a/4g/4f/4 e/4c/4d/4B/4A/4F/4G/4E/4 | %131
 D/4B,/4C/4E/4A/4c/4e/4=g/4 a/_F,/4A/4G/4F/4E/4D/4 G,/4B/4A/4G/4F/4C/4D/4G/4 E>D | %132
 D/>E/F/4G/4A/4_c/4 B/4A/4G/4F/4G/4E/4d/4=c/4 d/>A/G/8F/8G/8F/8E/4D/4 D,3/2 e/ | %133
 ee/4g/4f/4e/4 d/4c/4B/4c/4d/4c/4B/4c/8A/8 a3/2g/4f/4 e/4d/4c/4B/4A/4G/4F/4G/4 | %134
 F/-F/8A/8B/8c/8d/4B/4G/4F/4 E/g/4f/4g/4e/4c/4A/4 D/A/4B/4c/4d/4e/4f/8g/8 f3/4D/8E/8F/4D/4E/4F/4 | %135
 _C,>A B/4A/4B/4_c/4B/4c/4c/4B/4 d3/2 z/ z2 | %136
 A,=G,/>f/ f/4_f/4=g/4=f/4a/4g/4b/4d/4 _F/c/4b/4a/4b/4g/ a/g/4f/4f/4e/4d/4e/8c/8 | %137
 d/>c/B/4A/4G/4A/8F/8 G3/4D/8E/8F/8G/8A/4B/4c/8d/8 d/F/8E/8F/8E/8F/8E/8F/8E/8F/4=G/4 C/4B,/D/4C/D/4B,/4 | %138
 A,/4f/4=g/4a/4B/4a/4g/4b/4 ff/8e/8f/8e/8f/8e/8f/4 f/>c/f/4g/4a/4g/4 a/4b/4_c'/4a/4=d/4e/4d/4e/4 | %139
 =d3/4A/8B/8_c/8c3/4A/8B/8c/8 c/B/4a/4a/8g/8f/8g/8a/8f/8 g3/2a/4b/4 a/4g/4f/4e/4_d/4=c/4e/4d/4 | %140
 d/B,/4C/4D/4E/4F/4D/4 =G/4B/4E/4F/4G/4A/4B/4c/4 d/4c/4B/4c/4d/4B/4c/4A/4 a/>_G/A/4G/4F/4G/4 | %141
 F/>a/g/4f/4e/4d/4 _c/4B/4c/4a/4c/4B/4c/4A/4 =D/4F/4B/4=d/4f/4a/4g/4f/4 g/E/4F/4G/4A/4B/4_d/4 | %142
 c/4e/4A/4c/4e/4g/4f/4e/4 f/D/4E/4F/4G/4A/4_C/4 G,/>f/b/4a/4g/4f/4 e/4c/4d/4B/4A/4F/4G/4E/4 | %143
 D/4B,/4C/4E/4A/4c/4e/4=g/4 a/_F,/4A/4G/4F/4E/4D/4 G,/4B/4A/4G/4F/4C/4D/4G/4 E>D | %144
 D/>E/F/4G/4A/4_c/4 B/4A/4G/4F/4G/4E/4d/4=c/4 d/>A/G/8F/8G/8F/8E/4D/4 D,3/2 z/ | %145
[M:3/4][Q:1/4=144]"^Vivace" z4 z d | dD/E/ FD AF | dA fd a_c | Be/f/ ge bd | cA/B/ cA eG | %150
 FD/E/ FD A_C | B,G,/A,/ B,G, EG, | F,A, DG, A,C | D2 D,F G/F/E/D/ | EC/D/ EA, AE | FD/E/ FD AF | %156
 dB/c/ dB fA | =GB Ec/d/ e/d/c/B/ | cA E,d/e/ f/e/d/c/ | dB E,c/d/ e/d/c/B/ | %160
 c/B/A/=G/ A/G/A/B/ c/B/A/G/ | A/=G/F/E/ F/E/F/G/ A/G/F/E/ | F/E/D/C/ D/C/D/E/ F/E/D/C/ | %163
 D/C/B,/A,/ B,/C/D/E/ F/=G/A/F/ | =G/F/E/D/ E/F/G/A/ B/c/d/B/ | cA/B/ cA ec | aF/=G/ AF cA | %167
 aC/D/ EC AE | F/E/D/C/ D/B,/=G/F/ A/G/F/E/ | B/A/=G/F/ G/E/c/B/ d/c/B/A/ | %170
 e/d/c/B/ c/A/f/e/ g/f/e/d/ | b=g/a/ be gd | cA/B/ cE =GD | A,4 z d | dD/E/ FD AF | dA fd a_c | %176
 Be/f/ ge bd | cA/B/ cA eG | FD/E/ FD A_C | B,G,/A,/ B,G, EG, | F,A, DG, A,C | D2 D,F G/F/E/D/ | %182
 EC/D/ EA, AE | FD/E/ FD AF | dB/c/ dB fA | =GB Ec/d/ e/d/c/B/ | cA E,d/e/ f/e/d/c/ | %187
 dB E,c/d/ e/d/c/B/ | c/B/A/=G/ A/G/A/B/ c/B/A/G/ | A/=G/F/E/ F/E/F/G/ A/G/F/E/ | %190
 F/E/D/C/ D/C/D/E/ F/E/D/C/ | D/C/B,/A,/ B,/C/D/E/ F/=G/A/F/ | =G/F/E/D/ E/F/G/A/ B/c/d/B/ | %193
 cA/B/ cA ec | aF/=G/ AF cA | aC/D/ EC AE | F/E/D/C/ D/B,/=G/F/ A/G/F/E/ | %197
 B/A/=G/F/ G/E/c/B/ d/c/B/A/ | e/d/c/B/ c/A/f/e/ g/f/e/d/ | b=g/a/ be gd | cA/B/ cE =GD | A,4 z a | %202
 ae/d/ ce Ac | EA CE A,G, | F,G/F/ Ed cg | fd Df/e/ g/f/e/d/ | ec A,e/d/ f/e/d/c/ | %207
 dF B,C/D/ E/D/E/F/ | E/F/G/F/ G/A/G/A/ B/c/d/B/ | cG A,B,/C/ D/C/D/E/ | %210
 D/E/F/E/ F/G/F/G/ A/B/c/A/ | BF G,A,/B,/ C/B,/C/D/ | C/D/E/D/ E/F/E/F/ G/A/B/G/ | %213
 E/d/c/B/ =A/g/f/e/ b/=a/=g/f/ | ba/g/ f/e/d/c/ d/c/e/=A/ | B2 B,B/c/ dB | =gd ba/g/ a/g/f/e/ | %217
 ac/d/ eA gc | f_c ag/f/ g/f/e/d/ | gB/_c/ dG BF | Ec/d/ eA gD | Cc/d/ eA gA, | %222
 Df/e/ g/f/e/d/ e/d/c/B/ | c/B/A/G/ A/G/F/E/ F/E/D/C/ | DB,/C/ D/E/F/E/ G/F/A/=G/ | %225
 AC/D/ E/F/G/F/ A/=G/B/=A/ | BD/E/ FB =DB | _cE/F/ Gc E=c | dF/G/ AA/B/ _ca/c/ | %229
 G,B/A/ BB/c/ db/d/ | c/G/c/e/ aG/F/ A/G/F/E/ | Fd aF/E/ G/F/E/D/ | Ec a/G/F/E/ D/E/F/G/ | %233
 F/G/A/B/ A/B/A/G/ F/G/A/B/ | A/B/c/d/ c/d/c/B/ A/B/c/d/ | c/d/e/f/ e/f/e/d/ c/d/e/f/ | %236
 e/f/g/a/ g/f/e/d/ c/B/A/G/ | FD/E/ FD AF | dB,/C/ DB, FD | dF,/G,/ A,F, DA, | %240
 B,/A,/G,/F,/ G,/E,/C/B,/ D/C/B,/A,/ | E/D/C/B,/ C/A,/F/E/ G/F/E/D/ | A/G/F/E/ F/D/B/A/ _c/B/A/G/ | %243
 ec/d/ eA cG | FD/E/ FA, CG, | D,4 z a | ae/d/ ce Ac | EA CE A,G, | F,G/F/ Ed cg | %249
 fd Df/e/ g/f/e/d/ | ec A,e/d/ f/e/d/c/ | dF B,C/D/ E/D/E/F/ | E/F/G/F/ G/A/G/A/ B/c/d/B/ | %253
 cG A,B,/C/ D/C/D/E/ | D/E/F/E/ F/G/F/G/ A/B/c/A/ | BF G,A,/B,/ C/B,/C/D/ | %256
 C/D/E/D/ E/F/E/F/ G/A/B/G/ | E/d/c/B/ =A/g/f/e/ b/=a/=g/f/ | ba/g/ f/e/d/c/ d/c/e/=A/ | %259
 B2 B,B/c/ dB | =gd ba/g/ a/g/f/e/ | ac/d/ eA gc | f_c ag/f/ g/f/e/d/ | gB/_c/ dG BF | %264
 Ec/d/ eA gD | Cc/d/ eA gA, | Df/e/ g/f/e/d/ e/d/c/B/ | c/B/A/G/ A/G/F/E/ F/E/D/C/ | %268
 DB,/C/ D/E/F/E/ G/F/A/=G/ | AC/D/ E/F/G/F/ A/=G/B/=A/ | BD/E/ FB =DB | _cE/F/ Gc E=c | %272
 dF/G/ AA/B/ _ca/c/ | G,B/A/ BB/c/ db/d/ | c/G/c/e/ aG/F/ A/G/F/E/ | Fd aF/E/ G/F/E/D/ | %276
 Ec a/G/F/E/ D/E/F/G/ | F/G/A/B/ A/B/A/G/ F/G/A/B/ | A/B/c/d/ c/d/c/B/ A/B/c/d/ | %279
 c/d/e/f/ e/f/e/d/ c/d/e/f/ | e/f/g/a/ g/f/e/d/ c/B/A/G/ | FD/E/ FD AF | dB,/C/ DB, FD | %283
 dF,/G,/ A,F, DA, | B,/A,/G,/F,/ G,/E,/C/B,/ D/C/B,/A,/ | E/D/C/B,/ C/A,/F/E/ G/F/E/D/ | %286
 A/G/F/E/ F/D/B/A/ _c/B/A/G/ | ec/d/ eA cG | FD/E/ FA, CG, | D,4 z2 |[M:3/2] f4 f6 g2 | %291
 e2 c2 d6 b2 | a2 f2 g4 g2 a2 | g2 f2 g2 e2 f4 | f4 =g6 a2 | b2 c2 d6 e2 | d2 c2 c2 B2 B2 d2 | %297
 d2 c2 c8 | f4 f6 g2 | e2 c2 d6 b2 | a2 f2 g4 g2 a2 | g2 f2 g2 e2 f4 | f4 =g6 a2 | b2 c2 d6 e2 | %304
 d2 c2 c2 B2 B2 d2 | d2 c2 c8 | e4 e6 e2 | e2 c2 =d2 AB _c2 E2 | f2 A2 B2 fg a2 =D2 | a2 f2 g6 g2 | %310
 g2 f2 _c'4 z4 | F2 e2 d2 _c'2 b4 | d2 e2 e2 f2 f2 g2 | g4 g6 b2 | b2 g2 g2 e2 e2 c2 | %315
 c2 A2 A2 G2 G2 a2 | a2 f2 f2 d2 d2 B2 | B2 G2 G2 F2 F2 g2 | g2 d2 d2 c2 c2 B2 | %319
 g2 c2 c2 B2 B2 A2 | z2 g2 g2 f2 f2 =g2 | =g2 a2 a6 c2 | a2 f2 f2 d2 d2 c2 | a2 z2 c6 d2 | %324
 a2 _f2 f2 d2 d2 c2 | c2 de e6 d2 | d2 ef/g/ g2 f2 f2 e2 | e2 f2 f2 e2 e2 d2 | d4 d4 c4 | %329
 c2 d2 d8 | e4 e6 e2 | e2 c2 =d2 AB _c2 E2 | f2 A2 B2 fg a2 =D2 | a2 f2 g6 g2 | g2 f2 _c'4 z4 | %335
 F2 e2 d2 _c'2 b4 | d2 e2 e2 f2 f2 g2 | g4 g6 b2 | b2 g2 g2 e2 e2 c2 | c2 A2 A2 G2 G2 a2 | %340
 a2 f2 f2 d2 d2 B2 | B2 G2 G2 F2 F2 g2 | g2 d2 d2 c2 c2 B2 | g2 c2 c2 B2 B2 A2 | %344
 z2 g2 g2 f2 f2 =g2 | =g2 a2 a6 c2 | a2 f2 f2 d2 d2 c2 | a2 z2 c6 d2 | a2 _f2 f2 d2 d2 c2 | %349
 c2 de e6 d2 | d2 ef/g/ g2 f2 f2 e2 | e2 f2 f2 e2 e2 d2 | d4 d4 c4 | c2 d2 !fermata!d8 | %354
[M:2/2][Q:1/4=184]"^Presto" z4 f2 f2 | f2 ed ef g2 | dcBA a2 a2 | a2 ba gfef | gfed f2 f2 | %359
 f2 ed ef g2 | dcBA d2 d2 | d2 cd cB e2 | c4 f2 f2 | f2 ed ef g2 | dcBA a2 a2 | a2 ba gfef | %366
 gfed f2 f2 | f2 ed ef g2 | dcBA d2 d2 | d2 cd cB e2 | c4 a2 a2 | a2 ba gf b2 | agfe Agfe | %373
 G=deg AfBd | EBef g2 g2 | CEAB cdef | gfed cdeB | =AeBd EcFA | B4 d2 d2 | d2 cB cd e2 | %380
 dcBA Bcdc | edfe gf a2 |{f} e4 f2 f2 | f2 ed ef g2 | dcBA a2 a2 | a2 ba gfef | gfed f2 f2 | %387
 fagf edcB | cbag fedc | BA a2 f2 ed | d4 a2 a2 | a2 ba gf b2 | agfe Agfe | G=deg AfBd | %394
 EBef g2 g2 | CEAB cdef | gfed cdeB | =AeBd EcFA | B4 d2 d2 | d2 cB cd e2 | dcBA Bcdc | %401
 edfe gf a2 |{f} e4 f2 f2 | f2 ed ef g2 | dcBA a2 a2 | a2 ba gfef | gfed f2 f2 | fagf edcB | %408
 cbag fedc | BA a2 f2 ed | d4 fe f2 | A2 A2 B2 c2 | dcde de f2 | A2 A2 B2 c2 | d4 fe f2 | %415
 A2 A2 B2 c2 | dcde de f2 | A2 A2 B2 c2 | d4 AG A2 | B2 d2 d_cBA | B4 A2 d2 | B2 d2 cBcd | %422
 e4 fe f2 | A2 A2 B2 c2 | dcde de f2 | A2 A2 B2 c2 | d4 dAde | fAgA fAeA | fAaA gAeA | fAed cdec | %430
 dABA dAde | fAgA fAeA | fAaA gAeA | fAed cdec | A4 fe f2 | A2 A2 B2 c2 | dcde de f2 | %437
 A2 A2 B2 c2 | d4 AG A2 | B2 d2 d_cBA | B4 A2 d2 | B2 d2 cBcd | e4 fe f2 | A2 A2 B2 c2 | %444
 dcde de f2 | A2 A2 B2 c2 | d4 dAde | fAgA fAeA | fAaA gAeA | fAed cdec | dABA dAde | fAgA fAeA | %452
 fAaA gAeA | fAed cdec | A4 fe f2 | A2 A2 B2 c2 | dcde de f2 | A2 A2 B2 c2 | d4 f2 f2 | %459
 f2 ed ef g2 | dcBA a2 a2 | a2 ba gfef | gfed f2 f2 | f2 ed ef g2 | dcBA d2 d2 | d2 cd cB e2 | %466
 c4 a2 a2 | a2 ba gf b2 | agfe Agfe | G=deg AfBd | EBef g2 g2 | CEAB cdef | gfed cdeB | %473
 =AeBd EcFA | B4 d2 d2 | d2 cB cd e2 | dcBA Bcdc | edfe gf a2 |{f} e4 f2 f2 | f2 ed ef g2 | %480
 dcBA a2 a2 | a2 ba gfef | gfed f2 f2 | fagf edcB | cbag fedc | BA a2 f2 ed | d4 z4 | %487
[M:6/8][Q:1/4=132]"^Allegro" z4 z a | d3 efg | fda a/g/f/g/a | dAd efg | fdA D2 a | fAa eAg | %493
 dAf eAg | fAa eAg | dAf eAe | fef B/c/dB | =G/F/G/A/B ED/C/D/B,/ | ede A/B/c/B/A/G/ | %499
 F/E/F/G/A/F/ D/F/=G/A/B/c/ | dcd f/=g/af | dcd B/c/d/B/c/d/ | =G,/B,/E/=G/B/d/ b/a/=g/a/b/e/ | %503
 dcd d2 e | A3 Bcd | cAe e/d/c/d/e | AEA [EB]cd | cAE A,2 A | eee z3 | =ggg E/D/E/F/=G | %510
 =G/F/G/A/B B/A/B/c/d | b/=g/b/g/b/g/ e3 | a/e/a/e/a/e/ eee | AAA DDD | %514
 C,/e/d/c/B/A/ E/d/c/B/A/=G/ | A,/E/A/c/e/=g/ a2 a | d3 efg | fda a/g/f/g/a | dAd efg | fdA D2 a | %520
 fAa eAg | dAf eAg | fAa eAg | dAf eAe | fef B/c/dB | =G/F/G/A/B ED/C/D/B,/ | ede A/B/c/B/A/G/ | %527
 F/E/F/G/A/F/ D/F/=G/A/B/c/ | dcd f/=g/af | dcd B/c/d/B/c/d/ | =G,/B,/E/=G/B/d/ b/a/=g/a/b/e/ | %531
 dcd d2 e | A3 Bcd | cAe e/d/c/d/e | AEA [EB]cd | cAE A,2 A | eee z3 | =ggg E/D/E/F/=G | %538
 =G/F/G/A/B B/A/B/c/d | b/=g/b/g/b/g/ e3 | a/e/a/e/a/e/ eee | AAA DDD | %542
 C,/e/d/c/B/A/ E/d/c/B/A/=G/ | A,/E/A/c/e/=g/ a2 e | [Ae]3{ef} gfe | e=Ag eA/B/c/B/ | %546
 c/d/c/d/e/f/ gfe | dBF B,2 d | g/f/e/d/_c/B/ cEg | f/e/d/c/B/=A/ BDf | G,b/a/g/f/ e/d/c/d/e/d/ | %551
 c/B/=A/B/c/A/ F2 f | dFf cFe | BFd cFe | dFf cFe | BFd cFf | g/f/e/f/g =abe | f/e/d/e/f =abd | %558
 c/d/e/f/g/B/ FB=A | fF/E/D/C/ B,dA, | =G,dF, E,e/d/c/B/ | cA/B/c/d/ e/f/=g/a/b/f/ | %562
 _Fcb Cb/a/b/=g/ | a/f/c/B/A/=G/ F/G/A/B/c/d/ | e/f/gC A,a/g/f/e/ | fD/_C/B,/A,/ G,/D/E/F/G/A/ | %566
 B/d/e/f/g/a/ b/c'/d'/c'/b/a/ | g/f/e/d/c/B/ B/4A/4B/4A/4B/4A/4B/4A/4A | d3 F/E/F/G/A | %569
 A3 D/C/D/E/F | F/E/F/G/A AB/A/G/A/ | F/A,/B,/C/D/E/ F/G/A/B/_c/d/ | BAB E/F/GE | %573
 C/B,/C/D/E A,G,/F,/G,/E,/ | F,A/G/F/E/ D/E/F/E/D/C/ | B,/A,/B,/C/D/B,/ G,/B,/C/D/E/F/ | %576
 GFG B/c/dB | GFG E/F/G/E/F/G/ | C,/E,/A,/C/E/G/ e/d/c/d/e/c/ | g/f/e/f/g/e/ c'/b/a/b/c'/a/ | %580
 d'/a/d'/a/d'/a/ aaa | ddd GGG | F,/a/g/f/e/d/ A/g/f/e/d/c/ | d/A/F/D/A,/F,/ D,2 e | %584
 [Ae]3{ef} gfe | e=Ag eA/B/c/B/ | c/d/c/d/e/f/ gfe | dBF B,2 d | g/f/e/d/_c/B/ cEg | %589
 f/e/d/c/B/=A/ BDf | G,b/a/g/f/ e/d/c/d/e/d/ | c/B/=A/B/c/A/ F2 f | dFf cFe | BFd cFe | dFf cFe | %595
 BFd cFf | g/f/e/f/g =abe | f/e/d/e/f =abd | c/d/e/f/g/B/ FB=A | fF/E/D/C/ B,dA, | %600
 =G,dF, E,e/d/c/B/ | cA/B/c/d/ e/f/=g/a/b/f/ | _Fcb Cb/a/b/=g/ | a/f/c/B/A/=G/ F/G/A/B/c/d/ | %604
 e/f/gC A,a/g/f/e/ | fD/_C/B,/A,/ G,/D/E/F/G/A/ | B/d/e/f/g/a/ b/c'/d'/c'/b/a/ | %607
 g/f/e/d/c/B/ B/4A/4B/4A/4B/4A/4B/4A/4A | d3 F/E/F/G/A | A3 D/C/D/E/F | F/E/F/G/A AB/A/G/A/ | %611
 F/A,/B,/C/D/E/ F/G/A/B/_c/d/ | BAB E/F/GE | C/B,/C/D/E A,G,/F,/G,/E,/ | F,A/G/F/E/ D/E/F/E/D/C/ | %615
 B,/A,/B,/C/D/B,/ G,/B,/C/D/E/F/ | GFG B/c/dB | GFG E/F/G/E/F/G/ | C,/E,/A,/C/E/G/ e/d/c/d/e/c/ | %619
 g/f/e/f/g/e/ c'/b/a/b/c'/a/ | d'/a/d'/a/d'/a/ aaa | ddd GGG | F,/a/g/f/e/d/ A/g/f/e/d/c/ | %623
 d/A/F/D/A,/F,/ !fermata!D,2 z |] %624
V:2
 D z D D z F D z A D z d | D z D D z F D z A D z d | z12 | z12 | z12 | z12 | z12 | z12 | z12 | %9
 z12 | z12 | A z A A z c A z e A z a | A z A A z c A z e A z a | z12 | z12 | z12 | z12 | z12 | %18
 z12 | z12 | z12 | z12 | e z =d e z f g z f e z d | e z =d e z f g z f e z d | %24
 e z g =d z f e z g d z f | e z g f z a g z e f z a | g z f g z a b z a g z f | %27
 g z f g z a b z a g z f | g z b f z a g z b f z a | g z e f z =d e z g f z d | %30
 e z g d z f c z e B z d | =A z c A z c z6 | z4 z8 | z4 z8 | z4 z8 | z4 z8 | z4 z8 | z12 | z12 | %39
 z12 | z12 | z12 | z12 | z12 | z12 | z12 | z12 | z12 | z12 | z4 z8 | z4 z8 | z4 z8 | z12 | %53
 z G, z2 G, z2 G, z2 G, z | z G, z2 G, z2 G, z2 G, z | z4 z8 | z4 z8 | z4 z8 | z4 z8 | z4 z8 | %60
 z4 z8 | z4 z8 | z4 z8 | z4 z8 | z4 z8 | z4 z8 | z4 z8 | z4 z8 | z4 z8 | z4 z8 | z4 z8 | z4 z8 | %72
 z4 z8 | z4 z8 | z4 z8 | z4 z8 | z4 z8 | z4 z8 | z12 | z4 z8 | z4 z8 | z4 z8 | z12 | z6 z3 z3 | %84
 z4 z8 | z4 z8 | z4 z8 | z4 z8 | z12 | A z A A z c A z e A z a | A z A A z c A z e A z a | %91
 D z D D z F D z A D z d | D z D D z F D z A D z d | z12 | z12 | z12 | z12 | z6 =G z z _G z z | %98
 F z z _F z z E z z E z2 | z12 | z12 | z12 | z12 | z12 |[M:4/4] z4 z2 z z/ z/ | A2 z2 E2 z2 | %106
 F3/2 z/ B/ z/ z B z A2 | A z f>f z4 | z4 F/>=G/A/4B/4c/4A/4 z2 | B z c>c c/ z/ z z2 | %110
 d/ z/ z z2 c/ z/ z z2 | z2 z4 E2 | A/ z/ z z2 z2 z2 | A2 z2 E2 z2 | F3/2 z/ B/ z/ z B z A2 | %115
 A z f>f z4 | z4 F/>=G/A/4B/4c/4A/4 z2 | B z c>c c/ z/ z z2 | d/ z/ z z2 c/ z/ z z2 | z2 z4 E2 | %120
 A/ z/ z z2 z2 z z/ z/ | E z z2 E3/2 z/ z2 | z8 | z4 B,>B, _C/4B,/4C/4D/4C/8D/4<D/4C/8D/8E/8 | %124
 z4 z2 c3/2 z/ | F3/4 z/4 z2 z z4 | z2 c z z4 | z4 B3/2 z/ z2 | z4 z4 | z8 | z8 | z2 z4 A,2 | %132
 z4 z2 z2 | E z z2 E3/2 z/ z2 | z8 | z4 B,>B, _C/4B,/4C/4D/4C/8D/4<D/4C/8D/8E/8 | %136
 z z3/4 z/4 z2 z2 c3/2 z/ | F3/4 z/4 z2 z z4 | z2 c z z4 | z4 B3/2 z/ z2 | z8 | z8 | z8 | %143
 z2 z4 A,2 | z8 |[M:3/4] z4 z z | z6 | z6 | z6 | z6 | z6 | z6 | z6 | z6 | z6 | z6 | z6 | z6 | z6 | %159
 z6 | z6 | z6 | z6 | z6 | z6 | z6 | z6 | z6 | z6 | z6 | z6 | z6 | z6 | z4 z z | z6 | z6 | z6 | z6 | %178
 z6 | z6 | z6 | z6 | z6 | z6 | z6 | z6 | z6 | z6 | z6 | z6 | z6 | z6 | z6 | z6 | z6 | z6 | z6 | %197
 z6 | z6 | z6 | z6 | z4 z z | z6 | z6 | z6 | z6 | z6 | z6 | z6 | z6 | z6 | z6 | z6 | z6 | z6 | z6 | %216
 z6 | z6 | z6 | z6 | z6 | z6 | z6 | z6 | z6 | z6 | z6 | z6 | z6 | z6 | z6 | z6 | z6 | z6 | z6 | %235
 z6 | z6 | z6 | z6 | z6 | z6 | z6 | z6 | z6 | z6 | z4 z z | z6 | z6 | z6 | z6 | z6 | z6 | z6 | z6 | %254
 z6 | z6 | z6 | z6 | z6 | z6 | z6 | z6 | z6 | z6 | z6 | z6 | z6 | z6 | z6 | z6 | z6 | z6 | z6 | %273
 z6 | z6 | z6 | z6 | z6 | z6 | z6 | z6 | z6 | z6 | z6 | z6 | z6 | z6 | z6 | z6 | z4 z2 | %290
[M:3/2] D4 z8 | G4 F6 z2 | F4 E6 z2 | D4 z8 | D4 z8 | E4 E6 z2 | E4 D4 E4 | E4 z8 | D4 z8 | %299
 G4 F6 z2 | F4 E6 z2 | D4 z8 | D4 z8 | E4 E6 z2 | E4 D4 E4 | E4 z8 | E4 E6 z2 | A2 z2 z8 | %308
 _c2 z2 z8 | B4 B6 z2 | A6 d2 e2 G2 | z8 d4 | G4 G4 _c4 | D4 z8 | d2 B2 B2 z4 z2 | z12 | %316
 d2 A2 A2 z4 z2 | z12 | E2 F2 F2 E2 E2 D2 | D2 E2 E2 D2 D2 C2 | E2 z2 A4 D2 z2 | E2 z2 z8 | %322
 F2 A2 A2 F2 F2 E2 | E2 G2 G2 E2 E2 _F2 | _F2 A2 A2 F2 F2 E2 | E2 z2 F6 z2 | B,2 z2 z4 D2 z2 | %327
 G2 A2 A2 G2 G2 F2 | G,4 A,4 z4 | A,4 z8 | E4 E6 z2 | A2 z2 z8 | _c2 z2 z8 | B4 B6 z2 | %334
 A6 d2 e2 G2 | z8 d4 | G4 G4 _c4 | D4 z8 | d2 B2 B2 z4 z2 | z12 | d2 A2 A2 z4 z2 | z12 | %342
 E2 F2 F2 E2 E2 D2 | D2 E2 E2 D2 D2 C2 | E2 z2 A4 D2 z2 | E2 z2 z8 | F2 A2 A2 F2 F2 E2 | %347
 E2 G2 G2 E2 E2 _F2 | _F2 A2 A2 F2 F2 E2 | E2 z2 F6 z2 | B,2 z2 z4 D2 z2 | G2 A2 A2 G2 G2 F2 | %352
 G,4 A,4 z4 | !fermata!A,4 z8 |[M:2/2] z4 D2 z2 | D2 z2 G2 z2 | E4 E2 z2 | F2 z2 z4 | D2 z2 D2 z2 | %359
 D2 z2 G2 z2 | E4 F2 z2 | E2 z2 E2 z2 | E4 D2 z2 | D2 z2 G2 z2 | E4 E2 z2 | F2 z2 z4 | %366
 D2 z2 D2 z2 | D2 z2 G2 z2 | E4 F2 z2 | E2 z2 E2 z2 | E4 c2 z2 | F2 z2 z4 | E2 z2 z4 | z8 | %374
 z4 E2 D2 | z8 | D2 z2 z4 | z8 | B,4 B,2 A,2 | =G,2 z2 z4 | A,2 z2 z4 | z8 | A4 D2 z2 | %383
 D2 z2 G2 z2 | E4 E2 z2 | F2 z2 A2 z2 | D2 z2 D2 z2 | D2 z2 z4 | E z z2 z4 | z2 F2 A4 | A,4 c2 z2 | %391
 F2 z2 z4 | E2 z2 z4 | z8 | z4 E2 D2 | z8 | D2 z2 z4 | z8 | B,4 B,2 A,2 | =G,2 z2 z4 | A,2 z2 z4 | %401
 z8 | A4 D2 z2 | D2 z2 G2 z2 | E4 E2 z2 | F2 z2 A2 z2 | D2 z2 D2 z2 | D2 z2 z4 | E z z2 z4 | %409
 z2 F2 A4 | A,4 D z z2 | z2 F2 G2 E2 | D z z2 A, z z2 | z2 F2 G2 E2 | D4 D z z2 | z2 F2 G2 E2 | %416
 D z z2 A, z z2 | z2 F2 G2 E2 | D4 F2 D2 | G2 D2 F2 D2 | G2 D2 F2 D2 | G2 F2 E2 D2 | D4 D4 | %423
 z2 F2 G2 E2 | D z z2 A, z z2 | z2 F2 G2 E2 | D4 D4 | D2 D2 D2 D2 | D2 D2 D2 D2 | D4 D4 | D8 | %431
 D2 D2 D2 D2 | D2 D2 D2 D2 | D4 D4 | D4 D z z2 | z2 F2 G2 E2 | D z z2 A, z z2 | z2 F2 G2 E2 | %438
 D4 F2 D2 | G2 D2 F2 D2 | G2 D2 F2 D2 | G2 F2 E2 D2 | D4 D4 | z2 F2 G2 E2 | D z z2 A, z z2 | %445
 z2 F2 G2 E2 | D4 D4 | D2 D2 D2 D2 | D2 D2 D2 D2 | D4 D4 | D8 | D2 D2 D2 D2 | D2 D2 D2 D2 | D4 D4 | %454
 D4 D z z2 | z2 F2 G2 E2 | D z z2 A, z z2 | z2 F2 G2 E2 | D4 D2 z2 | D2 z2 G2 z2 | E4 E2 z2 | %461
 F2 z2 z4 | D2 z2 D2 z2 | D2 z2 G2 z2 | E4 F2 z2 | E2 z2 E2 z2 | E4 c2 z2 | F2 z2 z4 | E2 z2 z4 | %469
 z8 | z4 E2 D2 | z8 | D2 z2 z4 | z8 | B,4 B,2 A,2 | =G,2 z2 z4 | A,2 z2 z4 | z8 | A4 D2 z2 | %479
 D2 z2 G2 z2 | E4 E2 z2 | F2 z2 A2 z2 | D2 z2 D2 z2 | D2 z2 z4 | E z z2 z4 | z2 F2 A4 | A,4 z4 | %487
[M:6/8] z4 z z | F3 A z2 | A z z4 | F z z A z z | z6 | z6 | z6 | z6 | z6 | c z z z3 | z6 | E z z4 | %499
 z3 C/ z/ z z | F z z z3 | F z z z z2 | z6 | B, z z z3 | E3 E z2 | E z z z3 | E z z E z z | z6 | %508
 =G z z z3 | E z z4 | z6 | ddd d/B/d/B/d/B/ | ccc c/A/c/A/c/A/ | F/D/F/D/F/D/ B,/=G,/B,/G,/B,/G,/ | %514
 z6 | z3 z z z | F3 A z2 | A z z4 | F z z A z z | z6 | z6 | z6 | z6 | z6 | c z z z3 | z6 | E z z4 | %527
 z3 C/ z/ z z | F z z z3 | F z z z z2 | z6 | B, z z z3 | E3 E z2 | E z z z3 | E z z E z z | z6 | %536
 =G z z z3 | E z z4 | z6 | ddd d/B/d/B/d/B/ | ccc c/A/c/A/c/A/ | F/D/F/D/F/D/ B,/=G,/B,/G,/B,/G,/ | %542
 z6 | z3 z z z | A3 z3 | z6 | z6 | z6 | z6 | z6 | z6 | z6 | z6 | z6 | z6 | z6 | z6 | z6 | z6 | z6 | %560
 z6 | z6 | z6 | z6 | z6 | z6 | z6 | z6 | z6 | A3 z3 | z6 | z6 | D z z4 | z6 | z6 | z3 F,/ z/ z z | %576
 B, z z4 | B, z z4 | z6 | z6 | fff f/d/f/d/f/d/ | B/G/B/G/B/G/ E/C/E/C/E/C/ | z6 | z3 z z z | %584
 A3 z3 | z6 | z6 | z6 | z6 | z6 | z6 | z6 | z6 | z6 | z6 | z6 | z6 | z6 | z6 | z6 | z6 | z3 z3 | %602
 z6 | z6 | z6 | z6 | z6 | z6 | z6 | A3 z3 | z6 | z6 | D z z4 | z6 | z6 | z3 F,/ z/ z z | B, z z4 | %617
 B, z z4 | z6 | z6 | fff f/d/f/d/f/d/ | B/G/B/G/B/G/ E/C/E/C/E/C/ | z6 | z3 z z z |] %624
V:3
 x12 | x12 | x12 | x12 | x12 | x12 | x12 | x12 | x12 | x12 | x12 | x12 | x12 | x12 | x12 | x12 | %16
 x12 | x12 | x12 | x12 | x12 | x12 | x12 | x12 | x12 | x12 | x12 | x12 | x12 | x12 | x12 | x12 | %32
 x12 | x12 | x12 | x12 | x12 | x12 | x12 | x12 | x12 | x12 | x12 | x12 | x12 | x12 | x12 | x12 | %48
 x12 | x12 | x12 | x12 | x12 | x12 | x12 | x12 | x12 | x12 | x12 | x12 | x12 | x12 | x12 | x12 | %64
 x12 | x12 | x12 | x12 | x12 | x12 | x12 | x12 | x12 | x12 | x12 | x12 | x12 | x12 | x12 | x12 | %80
 x12 | x12 | x12 | x12 | x12 | x12 | x12 | x12 | x12 | x12 | x12 | x12 | x12 | x12 | x12 | x12 | %96
 x12 | z6 B, z z =A, z z | A, z z =G, z z A, z z A, z2 | x12 | x12 | x12 | x12 | x12 |[M:4/4] x8 | %105
 D2 z2 z4 | z4 E z z2 | D z z2 z4 | x8 | E z z2 F/ z/ z z2 | E/ z/ z z2 D/ z/ z z2 | x8 | x8 | %113
 D2 z2 z4 | z4 E z z2 | D z z2 z4 | x8 | E z z2 F/ z/ z z2 | E/ z/ z z2 D/ z/ z z2 | x8 | x8 | %121
 A, z z2 G,3/2 z/ z2 | x8 | x8 | z4 z2 F3/2 z/ | B,3/4 z/4 z2 z z4 | x8 | z4 E3/2 z/ z2 | x8 | x8 | %130
 x8 | x8 | x8 | A, z z2 G,3/2 z/ z2 | x8 | x8 | z4 z2 F3/2 z/ | B,3/4 z/4 z2 z z4 | x8 | %139
 z4 E3/2 z/ z2 | x8 | x8 | x8 | x8 | x8 |[M:3/4] x6 | x6 | x6 | x6 | x6 | x6 | x6 | x6 | x6 | x6 | %155
 x6 | x6 | x6 | x6 | x6 | x6 | x6 | x6 | x6 | x6 | x6 | x6 | x6 | x6 | x6 | x6 | x6 | x6 | x6 | %174
 x6 | x6 | x6 | x6 | x6 | x6 | x6 | x6 | x6 | x6 | x6 | x6 | x6 | x6 | x6 | x6 | x6 | x6 | x6 | %193
 x6 | x6 | x6 | x6 | x6 | x6 | x6 | x6 | x6 | x6 | x6 | x6 | x6 | x6 | x6 | x6 | x6 | x6 | x6 | %212
 x6 | x6 | x6 | x6 | x6 | x6 | x6 | x6 | x6 | x6 | x6 | x6 | x6 | x6 | x6 | x6 | x6 | x6 | x6 | %231
 x6 | x6 | x6 | x6 | x6 | x6 | x6 | x6 | x6 | x6 | x6 | x6 | x6 | x6 | x6 | x6 | x6 | x6 | x6 | %250
 x6 | x6 | x6 | x6 | x6 | x6 | x6 | x6 | x6 | x6 | x6 | x6 | x6 | x6 | x6 | x6 | x6 | x6 | x6 | %269
 x6 | x6 | x6 | x6 | x6 | x6 | x6 | x6 | x6 | x6 | x6 | x6 | x6 | x6 | x6 | x6 | x6 | x6 | x6 | %288
 x6 | x6 |[M:3/2] x12 | G,4 z8 | A,4 z8 | x12 | B,4 z8 | =G,4 z8 | A,4 z8 | A,4 z8 | x12 | G,4 z8 | %300
 A,4 z8 | x12 | B,4 z8 | =G,4 z8 | A,4 z8 | A,4 z8 | A,4 G,6 z2 | F2 z2 z8 | =D2 z2 z8 | E4 z8 | %310
 x12 | z8 G4 | B,4 _C4 D4 | G,4 z8 | G2 z2 z8 | x12 | F2 z2 z8 | x12 | x12 | x12 | %320
 C2 z2 D4 B,2 z2 | A,2 z2 z8 | A,2 z2 z8 | A,2 z2 z8 | A,2 z2 z8 | A,2 z2 =A,6 z2 | x12 | %327
 G,2 z2 z8 | x12 | D,4 z8 | A,4 G,6 z2 | F2 z2 z8 | =D2 z2 z8 | E4 z8 | x12 | z8 G4 | B,4 _C4 D4 | %337
 G,4 z8 | G2 z2 z8 | x12 | F2 z2 z8 | x12 | x12 | x12 | C2 z2 D4 B,2 z2 | A,2 z2 z8 | A,2 z2 z8 | %347
 A,2 z2 z8 | A,2 z2 z8 | A,2 z2 =A,6 z2 | x12 | G,2 z2 z8 | x12 | D,4 z8 |[M:2/2] x8 | G,2 z2 z4 | %356
 z4 G,2 z2 | x8 | x8 | G,2 z2 z4 | x8 | x8 | A,4 x4 | G,2 z2 z4 | z4 G,2 z2 | x8 | x8 | G,2 z2 z4 | %368
 x8 | x8 | A,4 F2 z2 | B,2 z2 z4 | x8 | x8 | x8 | x8 | x8 | x8 | x8 | x8 | x8 | x8 | x8 | %383
 G,2 z2 z4 | z4 G,2 z2 | x8 | x8 | G,2 z2 z4 | x8 | x8 | D,4 F2 z2 | B,2 z2 z4 | x8 | x8 | x8 | %395
 x8 | x8 | x8 | x8 | x8 | x8 | x8 | x8 | G,2 z2 z4 | z4 G,2 z2 | x8 | x8 | G,2 z2 z4 | x8 | x8 | %410
 D,4 z4 | x8 | z4 D, z z2 | x8 | x4 z4 | x8 | z4 D, z z2 | x8 | x8 | x8 | x8 | x8 | x8 | x8 | %424
 z4 D, z z2 | x8 | x8 | x8 | x8 | x8 | x8 | x8 | x8 | x8 | x8 | x8 | x8 | x8 | x8 | x8 | x8 | x8 | %442
 x8 | x8 | z4 D, z z2 | x8 | x8 | x8 | x8 | x8 | x8 | x8 | x8 | x8 | x8 | x8 | x8 | x8 | x8 | %459
 G,2 z2 z4 | z4 G,2 z2 | x8 | x8 | G,2 z2 z4 | x8 | x8 | A,4 F2 z2 | B,2 z2 z4 | x8 | x8 | x8 | %471
 x8 | x8 | x8 | x8 | x8 | x8 | x8 | x8 | G,2 z2 z4 | z4 G,2 z2 | x8 | x8 | G,2 z2 z4 | x8 | x8 | %486
 D,4 x4 |[M:6/8] x6 | x6 | D z z4 | x6 | x6 | x6 | x6 | x6 | x6 | D z z z3 | x6 | C z z4 | x6 | %500
 B, z z z3 | A, z z x3 | x6 | E, z z z3 | C3 z3 | A, z z z3 | C z z z3 | x6 | x6 | x6 | x6 | x6 | %512
 x6 | x6 | x6 | x6 | x6 | D z z4 | x6 | x6 | x6 | x6 | x6 | x6 | D z z z3 | x6 | C z z4 | x6 | %528
 B, z z z3 | A, z z x3 | x6 | E, z z z3 | C3 z3 | A, z z z3 | C z z z3 | x6 | x6 | x6 | x6 | x6 | %540
 x6 | x6 | x6 | x6 | x6 | x6 | x6 | x6 | x6 | x6 | x6 | x6 | x6 | x6 | x6 | x6 | x6 | x6 | x6 | %559
 x6 | x6 | x6 | x6 | x6 | x6 | x6 | x6 | x6 | x6 | x6 | x6 | x6 | G, z z4 | x6 | x6 | x6 | %576
 E, z z4 | D, z z4 | x6 | x6 | x6 | x6 | x6 | x6 | x6 | x6 | x6 | x6 | x6 | x6 | x6 | x6 | x6 | %593
 x6 | x6 | x6 | x6 | x6 | x6 | x6 | x6 | x6 | x6 | x6 | x6 | x6 | x6 | x6 | x6 | x6 | x6 | x6 | %612
 G, z z4 | x6 | x6 | x6 | E, z z4 | D, z z4 | x6 | x6 | x6 | x6 | x6 | x6 |] %624
V:4
 x12 | x12 | x12 | x12 | x12 | x12 | x12 | x12 | x12 | x12 | x12 | x12 | x12 | x12 | x12 | x12 | %16
 x12 | x12 | x12 | x12 | x12 | x12 | x12 | x12 | x12 | x12 | x12 | x12 | x12 | x12 | x12 | x12 | %32
 x12 | x12 | x12 | x12 | x12 | x12 | x12 | x12 | x12 | x12 | x12 | x12 | x12 | x12 | x12 | x12 | %48
 x12 | x12 | x12 | x12 | x12 | x12 | x12 | x12 | x12 | x12 | x12 | x12 | x12 | x12 | x12 | x12 | %64
 x12 | x12 | x12 | x12 | x12 | x12 | x12 | x12 | x12 | x12 | x12 | x12 | x12 | x12 | x12 | x12 | %80
 x12 | x12 | x12 | x12 | x12 | x12 | x12 | x12 | x12 | x12 | x12 | x12 | x12 | x12 | x12 | x12 | %96
 x12 | x12 | x12 | x12 | x12 | x12 | x12 | x12 |[M:4/4] x8 | x8 | x8 | x8 | z4 c/ z/ z z2 | x8 | %110
 x8 | x8 | x8 | x8 | x8 | x8 | z4 c/ z/ z z2 | x8 | x8 | x8 | x8 | c z z2 c3/2 z/ z2 | x8 | %123
 z4 E3/2 z/ z2 | x8 | x8 | x8 | x8 | x8 | x8 | x8 | x8 | x8 | c z z2 c3/2 z/ z2 | x8 | %135
 z4 E3/2 z/ z2 | x8 | x8 | x8 | x8 | x8 | x8 | x8 | x8 | x8 |[M:3/4] x6 | x6 | x6 | x6 | x6 | x6 | %151
 x6 | x6 | x6 | x6 | x6 | x6 | x6 | x6 | x6 | x6 | x6 | x6 | x6 | x6 | x6 | x6 | x6 | x6 | x6 | %170
 x6 | x6 | x6 | x6 | x6 | x6 | x6 | x6 | x6 | x6 | x6 | x6 | x6 | x6 | x6 | x6 | x6 | x6 | x6 | %189
 x6 | x6 | x6 | x6 | x6 | x6 | x6 | x6 | x6 | x6 | x6 | x6 | x6 | x6 | x6 | x6 | x6 | x6 | x6 | %208
 x6 | x6 | x6 | x6 | x6 | x6 | x6 | x6 | x6 | x6 | x6 | x6 | x6 | x6 | x6 | x6 | x6 | x6 | x6 | %227
 x6 | x6 | x6 | x6 | x6 | x6 | x6 | x6 | x6 | x6 | x6 | x6 | x6 | x6 | x6 | x6 | x6 | x6 | x6 | %246
 x6 | x6 | x6 | x6 | x6 | x6 | x6 | x6 | x6 | x6 | x6 | x6 | x6 | x6 | x6 | x6 | x6 | x6 | x6 | %265
 x6 | x6 | x6 | x6 | x6 | x6 | x6 | x6 | x6 | x6 | x6 | x6 | x6 | x6 | x6 | x6 | x6 | x6 | x6 | %284
 x6 | x6 | x6 | x6 | x6 | x6 |[M:3/2] A4 A6 z2 | B4 z8 | d4 c6 z2 | A4 z8 | B4 d6 z2 | x12 | x12 | %297
 x12 | A4 A6 z2 | B4 z8 | d4 c6 z2 | A4 z8 | B4 d6 z2 | x12 | x12 | x12 | c4 c6 z2 | x12 | x12 | %309
 x12 | x12 | x12 | x12 | _c2 A2 B6 z2 | x12 | x12 | x12 | x12 | c2 z2 z8 | B2 z2 z4 z2 E2 | %320
 A2 z2 z4 B2 z2 | c2 z2 c6 G2 | d2 z2 z8 | c2 z2 z8 | d2 z2 z8 | z4 c6 z2 | F2 z2 z4 _c2 z2 | %327
 B2 z2 z8 | F2 E2 E2 G2 G2 F2 | F4 F8 | c4 c6 z2 | x12 | x12 | x12 | x12 | x12 | x12 | %337
 _c2 A2 B6 z2 | x12 | x12 | x12 | x12 | c2 z2 z8 | B2 z2 z4 z2 E2 | A2 z2 z4 B2 z2 | c2 z2 c6 G2 | %346
 d2 z2 z8 | c2 z2 z8 | d2 z2 z8 | z4 c6 z2 | F2 z2 z4 _c2 z2 | B2 z2 z8 | F2 E2 E2 G2 G2 F2 | %353
 F4 F8 |[M:2/2] x4 A4 | B2 z2 B2 z2 | z4 c2 z2 | d2 z2 A2 z2 | A2 z2 A2 z2 | B2 z2 B2 z2 | x8 | %361
 x8 | x4 A4 | B2 z2 B2 z2 | z4 c2 z2 | d2 z2 A2 z2 | A2 z2 A2 z2 | B2 z2 B2 z2 | x8 | x8 | x8 | %371
 =d2 z2 B2 z2 | B2 z2 z4 | x8 | z4 B2 B2 | x8 | A2 z2 z4 | x8 | F4 F2 F2 | E2 z2 z4 | E2 z2 z4 | %381
 x8 | z4 A2 z2 | B2 z2 B2 z2 | z4 c2 z2 | d2 z2 z4 | A2 z2 A2 z2 | B2 z2 z4 | x8 | z2 F2 z4 | %390
 F4 x4 | =d2 z2 B2 z2 | B2 z2 z4 | x8 | z4 B2 B2 | x8 | A2 z2 z4 | x8 | F4 F2 F2 | E2 z2 z4 | %400
 E2 z2 z4 | x8 | z4 A2 z2 | B2 z2 B2 z2 | z4 c2 z2 | d2 z2 z4 | A2 z2 A2 z2 | B2 z2 z4 | x8 | %409
 z2 F2 z4 | F4 A z z2 | x8 | z4 F z z2 | x8 | x4 A z z2 | x8 | z4 F z z2 | x8 | x8 | x8 | x8 | x8 | %422
 A4 A z z2 | x8 | z4 F z z2 | x8 | x8 | x8 | x8 | x8 | x8 | x8 | x8 | x8 | z4 A z z2 | x8 | %436
 z4 F z z2 | x8 | x8 | x8 | x8 | x8 | A4 A z z2 | x8 | z4 F z z2 | x8 | x8 | x8 | x8 | x8 | x8 | %451
 x8 | x8 | x8 | z4 A z z2 | x8 | z4 F z z2 | x8 | x4 A4 | B2 z2 B2 z2 | z4 c2 z2 | d2 z2 A2 z2 | %462
 A2 z2 A2 z2 | B2 z2 B2 z2 | x8 | x8 | x8 | =d2 z2 B2 z2 | B2 z2 z4 | x8 | z4 B2 B2 | x8 | %472
 A2 z2 z4 | x8 | F4 F2 F2 | E2 z2 z4 | E2 z2 z4 | x8 | z4 A2 z2 | B2 z2 B2 z2 | z4 c2 z2 | %481
 d2 z2 z4 | A2 z2 A2 z2 | B2 z2 z4 | x8 | z2 F2 z4 | F4 x4 |[M:6/8] x6 | x6 | x6 | x6 | x6 | x6 | %493
 x6 | x6 | x6 | x6 | x6 | B z z4 | x6 | x6 | x6 | x6 | z3 E2 D | x6 | x6 | x6 | x6 | %508
 ddd B/A/B/c/d | ddd z3 | x6 | x6 | x6 | x6 | x6 | x6 | x6 | x6 | x6 | x6 | x6 | x6 | x6 | x6 | %524
 x6 | x6 | B z z4 | x6 | x6 | x6 | x6 | z3 E2 D | x6 | x6 | x6 | x6 | ddd B/A/B/c/d | ddd z3 | x6 | %539
 x6 | x6 | x6 | x6 | x6 | x6 | x6 | x6 | x6 | x6 | x6 | x6 | x6 | x6 | x6 | x6 | x6 | x6 | x6 | %558
 x6 | x6 | x6 | x6 | x6 | x6 | x6 | x6 | x6 | x6 | x6 | x6 | x6 | x6 | x6 | x6 | x6 | x6 | x6 | %577
 x6 | x6 | x6 | x6 | x6 | x6 | x6 | x6 | x6 | x6 | x6 | x6 | x6 | x6 | x6 | x6 | x6 | x6 | x6 | %596
 x6 | x6 | x6 | x6 | x6 | x6 | x6 | x6 | x6 | x6 | x6 | x6 | x6 | x6 | x6 | x6 | x6 | x6 | x6 | %615
 x6 | x6 | x6 | x6 | x6 | x6 | x6 | x6 | x6 |] %624

